packages/ffe-icons/icons/open/400/sm/language_international.svg

<svg xmlns="http://www.w3.org/2000/svg" height="20" viewBox="0 -960 960 960" width="20"><path d="M84.21-336Q69-336 58.5-346.338 48-356.677 48-371.96v-215.757Q48-603 58.29-613.5 68.578-624 83.79-624q15.21 0 25.71 10.338Q120-603.323 120-588.04v215.757Q120-357 109.711-346.5q-10.29 10.5-25.5 10.5Zm120.001 0Q189-336 178.5-346.385 168-356.769 168-372.12v-220.335Q168-606 177-615q9-9 22.784-9H220q9 0 17 5t12.467 13.094L312-480v-108q0-15.3 10.289-25.65 10.29-10.35 25.5-10.35Q363-624 373.5-613.615 384-603.231 384-587.88v220.335Q384-354 375-345q-9 9-22.784 9H332q-9 0-17-5t-12.467-13.094L240-480v108q0 15.3-10.289 25.65-10.29 10.35-25.5 10.35Zm348 0Q537-336 526.5-346.35 516-356.7 516-372v-180h-48q-15.3 0-25.65-10.289-10.35-10.29-10.35-25.5Q432-603 442.35-613.5 452.7-624 468-624h168q15.3 0 25.65 10.289 10.35 10.29 10.35 25.5Q672-573 661.65-562.5 651.3-552 636-552h-48v179.724Q588-357 577.711-346.5q-10.29 10.5-25.5 10.5ZM756-336q-15.3 0-25.65-10.338Q720-356.677 720-371.96v-215.757Q720-603 730.289-613.5q10.29-10.5 25.5-10.5Q771-624 781.5-613.65 792-603.3 792-588v180h84q15.3 0 25.65 10.289 10.35 10.29 10.35 25.5Q912-357 901.65-346.5 891.3-336 876-336H756Z"/></svg>

<svg xmlns="http://www.w3.org/2000/svg" height="20" viewBox="0 -960 960 960" width="20"><path d="M84.21-336Q69-336 58.5-346.34T48-371.96v-215.76Q48-603 58.29-613.5 68.58-624 83.79-624t25.71 10.34q10.5 10.34 10.5 25.62v215.76q0 15.28-10.29 25.78Q99.42-336 84.21-336Zm120 0q-15.21 0-25.71-10.38-10.5-10.39-10.5-25.74v-220.33q0-13.55 9-22.55t22.78-9H220q9 0 17 5t12.47 13.09L312-480v-108q0-15.3 10.29-25.65Q332.58-624 347.79-624t25.71 10.38q10.5 10.39 10.5 25.74v220.33q0 13.55-9 22.55t-22.78 9H332q-9 0-17-5t-12.47-13.09L240-480v108q0 15.3-10.29 25.65Q219.42-336 204.21-336Zm348 0q-15.21 0-25.71-10.35T516-372v-180h-48q-15.3 0-25.65-10.29Q432-572.58 432-587.79t10.35-25.71Q452.7-624 468-624h168q15.3 0 25.65 10.29Q672-603.42 672-588.21t-10.35 25.71Q651.3-552 636-552h-48v179.72q0 15.28-10.29 25.78-10.29 10.5-25.5 10.5ZM756-336q-15.3 0-25.65-10.34Q720-356.68 720-371.96v-215.76q0-15.28 10.29-25.78 10.29-10.5 25.5-10.5t25.71 10.35Q792-603.3 792-588v180h84q15.3 0 25.65 10.29Q912-387.42 912-372.21t-10.35 25.71Q891.3-336 876-336H756Z"/></svg>
